contributed-vectors/youtube_vanced_alt_four.svg

<svg xmlns="http://www.w3.org/2000/svg" xml:space="preserve" style="fill-rule:evenodd;clip-rule:evenodd;stroke-linecap:round;stroke-linejoin:round;stroke-miterlimit:1.5" viewBox="0 0 192 192"><circle cx="96" cy="96" r="88" style="fill:#56595b"/><path d="M68.941 120.563 95.56 73.474l26.619 47.089" style="fill:none;stroke:#fff;stroke-width:8.02px" transform="matrix(0 .95745 -.78007 0 175.853 4.506)"/><path d="M91.763 80.191c.864-1.528 2.282-2.439 3.797-2.439 1.515 0 2.934.911 3.797 2.439l17.788 31.467c.98 1.734 1.095 3.993.298 5.863-.798 1.87-2.375 3.042-4.095 3.042H77.772c-1.719 0-3.297-1.172-4.094-3.042-.798-1.87-.683-4.129.297-5.863l17.788-31.467Z" style="fill:#ff837d" transform="matrix(0 .54785 -.44636 0 135.75 43.647)"/></svg>

<?xml version="1.0" encoding="UTF-8" standalone="no"?>
<!DOCTYPE svg PUBLIC "-//W3C//DTD SVG 1.1//EN" "http://www.w3.org/Graphics/SVG/1.1/DTD/svg11.dtd">
<svg width="100%" height="100%" viewBox="0 0 192 192" version="1.1" xmlns="http://www.w3.org/2000/svg" xmlns:xlink="http://www.w3.org/1999/xlink" xml:space="preserve" xmlns:serif="http://www.serif.com/" style="fill-rule:evenodd;clip-rule:evenodd;stroke-linecap:round;stroke-linejoin:round;stroke-miterlimit:1.5;">
    <circle cx="96" cy="96" r="88" style="fill:rgb(86,89,91);"/>
    <g transform="matrix(5.86267e-17,0.957447,-0.780069,4.77654e-17,175.853,4.50616)">
        <path d="M68.941,120.563L95.56,73.474L122.179,120.563" style="fill:none;stroke:white;stroke-width:8.02px;"/>
    </g>
    <g transform="matrix(3.35463e-17,0.547853,-0.446357,2.73315e-17,135.75,43.6471)">
        <path d="M91.763,80.191C92.627,78.663 94.045,77.752 95.56,77.752C97.075,77.752 98.494,78.663 99.357,80.191C104.027,88.452 111.97,102.503 117.145,111.658C118.125,113.392 118.24,115.651 117.443,117.521C116.645,119.391 115.068,120.563 113.348,120.563C103.49,120.563 87.63,120.563 77.772,120.563C76.053,120.563 74.475,119.391 73.678,117.521C72.88,115.651 72.995,113.392 73.975,111.658C79.151,102.503 87.094,88.452 91.763,80.191Z" style="fill:rgb(255,131,125);"/>
    </g>
</svg>
